; generated by Slic3r 1.2.9 on 2017-07-01 at 14:36:55

; external perimeters extrusion width = 0.50mm
; perimeters extrusion width = 0.72mm
; infill extrusion width = 0.72mm
; solid infill extrusion width = 0.72mm
; top infill extrusion width = 0.72mm

M107
M104 S200 ; set temperature
G28 ; home all axes
G1 Z5 F5000 ; lift nozzle

M109 S200 ; wait for temperature to be reached
G21 ; set units to millimeters
G90 ; use absolute coordinates
M82 ; use absolute distances for extrusion
G92 E0
G1 Z0.500 F7800.000
G1 E-2.00000 F2400.00000
G92 E0
G1 X84.650 Y85.654 F7800.000
G1 E2.00000 F2400.00000
G1 X86.412 Y84.115 E2.14774 F1800.000
G1 X88.587 Y83.254 E2.29548
G1 X90.000 Y83.107 E2.38516
G1 X110.000 Y83.107 E3.64807
G1 X112.306 Y83.504 E3.79581
G1 X114.346 Y84.650 E3.94356 F1800.000
G1 X115.885 Y86.412 E4.09130
G1 X116.746 Y88.587 E4.23904
G1 X116.893 Y90.000 E4.32872
G1 X116.893 Y110.000 E5.59163
G1 X116.496 Y112.306 E5.73937
G1 X115.350 Y114.346 E5.88711
G1 X113.588 Y115.885 E6.03485
G1 X111.413 Y116.746 E6.18259
G1 X110.000 Y116.893 E6.27227
G1 X90.000 Y116.893 E7.53518
G1 X87.694 Y116.496 E7.68292
G1 X85.654 Y115.350 E7.83067
G1 X84.115 Y113.588 E7.97841
G1 X83.254 Y111.413 E8.12615
G1 X83.107 Y110.000 E8.21583
G1 X83.107 Y90.000 E9.47874
G1 X83.504 Y87.694 E9.62648
G1 X84.613 Y85.720 E9.76949
G1 E7.76949 F2400.00000
G92 E0
G1 X107.715 Y107.715 F7800.000
G1 E2.00000 F2400.00000
G1 X92.285 Y107.715 E2.97429 F1800.000
G1 X92.285 Y92.285 E3.94857
G1 X107.715 Y92.285 E4.92286
G1 X107.715 Y107.640 E5.89241
G1 X108.607 Y108.607 F7800.000
G1 X91.393 Y108.607 E6.97943 F1800.000
G1 X91.393 Y91.393 E8.06646
G1 X108.607 Y91.393 E9.15348
G1 X108.607 Y108.532 E10.23577
G1 X109.500 Y109.500 F7800.000
G1 X90.500 Y109.500 E11.43554 F1800.000
G1 X90.500 Y90.500 E12.63530
G1 X109.500 Y90.500 E13.83507
G1 X109.500 Y109.425 E15.03010
G1 X109.067 Y109.250 F7800.000
G1 X107.165 Y93.254 F7800.000
G1 X106.746 Y92.835 E15.06756 F1800.000
G1 X105.482 Y92.835 E15.14756
G1 X107.165 Y94.518 E15.29815
G1 X107.165 Y95.783 E15.37816
G1 X104.217 Y92.835 E15.64189
G1 X102.952 Y92.835 E15.72189
G1 X107.165 Y97.048 E16.09877
G1 X107.165 Y98.312 E16.17877
G1 X101.688 Y92.835 E16.66878
G1 X100.423 Y92.835 E16.74878
G1 X107.165 Y99.577 E17.35194
G1 X107.165 Y100.842 E17.43194
G1 X99.158 Y92.835 E18.14823
G1 X97.894 Y92.835 E18.22823
G1 X107.165 Y102.106 E19.05766
G1 X107.165 Y103.371 E19.13766
G1 X96.629 Y92.835 E20.08022
G1 X95.364 Y92.835 E20.16022
G1 X107.165 Y104.636 E21.21593
G1 X107.165 Y105.901 E21.29593
G1 X94.099 Y92.835 E22.46477
G1 X92.855 Y92.855 E22.54352
G1 X107.145 Y107.145 E23.82192
G1 X105.900 Y107.165 E23.90067
G1 X92.835 Y94.099 E25.06951
G1 X92.835 Y95.364 E25.14951
G1 X104.636 Y107.165 E26.20522
G1 X103.371 Y107.165 E26.28522
G1 X92.835 Y96.629 E27.22778
G1 X92.835 Y97.894 E27.30779
G1 X102.106 Y107.165 E28.13721
G1 X100.842 Y107.165 E28.21721
G1 X92.835 Y99.158 E28.93350
G1 X92.835 Y100.423 E29.01350
G1 X99.577 Y107.165 E29.61666
G1 X98.312 Y107.165 E29.69666
G1 X92.835 Y101.688 E30.18667
G1 X92.835 Y102.952 E30.26667
G1 X97.048 Y107.165 E30.64355
G1 X95.783 Y107.165 E30.72355
G1 X92.835 Y104.217 E30.98728
G1 X92.835 Y105.482 E31.06728
G1 X94.518 Y107.165 E31.21788
G1 X93.254 Y107.165 E31.29788
G1 X92.835 Y106.746 E31.33534
G1 Z0.800 F7800.000
G1 X108.550 Y108.550 F7800.000
G1 X91.450 Y108.550 E31.81037 F3600.000
G1 X91.450 Y91.450 E32.28539
G1 X108.550 Y91.450 E32.76042
G1 X108.550 Y108.475 E33.23336
G1 X109.205 Y109.205 F7800.000
G1 X90.795 Y109.205 E33.74474 F3600.000
G1 X90.795 Y90.795 E34.25613
G1 X109.205 Y90.795 E34.76752
G1 X109.205 Y109.130 E35.27682
G1 X109.750 Y109.750 F7800.000
G1 X90.250 Y109.750 E35.63734 F1800.000
G1 X90.250 Y90.250 E35.99786
G1 X109.750 Y90.250 E36.35838
G1 X109.750 Y109.675 E36.71752
G1 X109.317 Y109.500 F7800.000
G1 X107.835 Y108.153 F7800.000
G1 X108.153 Y107.835 E36.73020 F1200.000
G1 X108.153 Y106.895 E36.75674
G1 X106.895 Y108.153 E36.80696
G1 X105.954 Y108.153 E36.83351
G1 X108.153 Y105.954 E36.92127
G1 X108.153 Y105.014 E36.94781
G1 X105.014 Y108.153 E37.07311
G1 X104.073 Y108.153 E37.09966
G1 X108.153 Y104.073 E37.26250
G1 X108.153 Y103.133 E37.28904
G1 X103.133 Y108.153 E37.48943
G1 X102.192 Y108.153 E37.51597
G1 X108.153 Y102.192 E37.75389
G1 X108.153 Y101.252 E37.78044
G1 X101.252 Y108.153 E38.05590
G1 X100.311 Y108.153 E38.08244
G1 X108.153 Y100.311 E38.39544
G1 X108.153 Y99.371 E38.42199
G1 X99.371 Y108.153 E38.77253
G1 X98.430 Y108.153 E38.79908
G1 X108.153 Y98.430 E39.18716
G1 X108.153 Y97.490 E39.21370
G1 X97.490 Y108.153 E39.63933
G1 X96.549 Y108.153 E39.66587
G1 X108.153 Y96.549 E40.12903
G1 X108.153 Y95.609 E40.15558
G1 X95.609 Y108.153 E40.65628
G1 X94.668 Y108.153 E40.68283
G1 X108.153 Y94.668 E41.22107
G1 X108.153 Y93.728 E41.24761
G1 X93.728 Y108.153 E41.82340
G1 X92.787 Y108.153 E41.84994
G1 X108.153 Y92.787 E42.46326
G1 X108.133 Y91.867 E42.48925
G1 X91.867 Y108.133 E43.13852
G1 X91.847 Y107.212 E43.16450
G1 X107.212 Y91.847 E43.77783
G1 X106.272 Y91.847 E43.80437
G1 X91.847 Y106.272 E44.38015
G1 X91.847 Y105.332 E44.40670
G1 X105.332 Y91.847 E44.94494
G1 X104.391 Y91.847 E44.97148
G1 X91.847 Y104.391 E45.47219
G1 X91.847 Y103.451 E45.49873
G1 X103.451 Y91.847 E45.96189
G1 X102.510 Y91.847 E45.98844
G1 X91.847 Y102.510 E46.41406
G1 X91.847 Y101.570 E46.44060
G1 X101.570 Y91.847 E46.82868
G1 X100.629 Y91.847 E46.85523
G1 X91.847 Y100.629 E47.20577
G1 X91.847 Y99.689 E47.23231
G1 X99.689 Y91.847 E47.54532
G1 X98.748 Y91.847 E47.57186
G1 X91.847 Y98.748 E47.84732
G1 X91.847 Y97.808 E47.87387
G1 X97.808 Y91.847 E48.11179
G1 X96.867 Y91.847 E48.13833
G1 X91.847 Y96.867 E48.33871
G1 X91.847 Y95.927 E48.36526
G1 X95.927 Y91.847 E48.52810
G1 X94.986 Y91.847 E48.55464
G1 X91.847 Y94.986 E48.67994
G1 X91.847 Y94.046 E48.70649
G1 X94.046 Y91.847 E48.79425
G1 X93.105 Y91.847 E48.82079
G1 X91.847 Y93.105 E48.87101
G1 X91.847 Y92.165 E48.89756
G1 X92.165 Y91.847 E48.91024
G1 Z1.100 F7800.000
G1 E46.91024 F2400.00000
G92 E0
G1 X108.550 Y108.550 F7800.000
G1 E2.00000 F2400.00000
G1 X91.450 Y108.550 E2.47502 F3600.000
G1 X91.450 Y91.450 E2.95005
G1 X108.550 Y91.450 E3.42507
G1 X108.550 Y108.475 E3.89802
G1 X109.205 Y109.205 F7800.000
G1 X90.795 Y109.205 E4.40940 F3600.000
G1 X90.795 Y90.795 E4.92079
G1 X109.205 Y90.795 E5.43217
G1 X109.205 Y109.130 E5.94147
G1 X109.750 Y109.750 F7800.000
G1 X90.250 Y109.750 E6.30200 F1800.000
G1 X90.250 Y90.250 E6.66252
G1 X109.750 Y90.250 E7.02304
G1 X109.750 Y109.675 E7.38217
G1 X109.317 Y109.500 F7800.000
G1 E5.38217 F2400.00000
G92 E0
G1 X108.153 Y92.165 F7800.000
G1 E2.00000 F2400.00000
G1 X107.835 Y91.847 E2.01268 F900.000
G1 X106.895 Y91.847 E2.03923
G1 X108.153 Y93.105 E2.08945
G1 X108.153 Y94.046 E2.11599
G1 X105.954 Y91.847 E2.20375
G1 X105.014 Y91.847 E2.23030
G1 X108.153 Y94.986 E2.35560
G1 X108.153 Y95.927 E2.38214
G1 X104.073 Y91.847 E2.54498
G1 X103.133 Y91.847 E2.57153
G1 X108.153 Y96.867 E2.77191
G1 X108.153 Y97.808 E2.79845
G1 X102.192 Y91.847 E3.03637
G1 X101.252 Y91.847 E3.06292
G1 X108.153 Y98.748 E3.33838
G1 X108.153 Y99.689 E3.36492
G1 X100.311 Y91.847 E3.67793
G1 X99.371 Y91.847 E3.70447
G1 X108.153 Y100.629 E4.05501
G1 X108.153 Y101.570 E4.08156
G1 X98.430 Y91.847 E4.46964
G1 X97.490 Y91.847 E4.49618
G1 X108.153 Y102.510 E4.92180
G1 X108.153 Y103.451 E4.94835
G1 X96.549 Y91.847 E5.41151
G1 X95.609 Y91.847 E5.43805
G1 X108.153 Y104.391 E5.93876
G1 X108.153 Y105.332 E5.96530
G1 X94.668 Y91.847 E6.50354
G1 X93.728 Y91.847 E6.53009
G1 X108.153 Y106.272 E7.10587
G1 X108.153 Y107.213 E7.13241
G1 X92.787 Y91.847 E7.74573
G1 X91.867 Y91.867 E7.77172
G1 X108.133 Y108.133 E8.42098
G1 X107.212 Y108.153 E8.44697
G1 X91.847 Y92.788 E9.06029
G1 X91.847 Y93.728 E9.08684
G1 X106.272 Y108.153 E9.66262
G1 X105.332 Y108.153 E9.68916
G1 X91.847 Y94.668 E10.22740
G1 X91.847 Y95.609 E10.25395
G1 X104.391 Y108.153 E10.75465
G1 X103.451 Y108.153 E10.78119
G1 X91.847 Y96.549 E11.24435
G1 X91.847 Y97.490 E11.27090
G1 X102.510 Y108.153 E11.69652
G1 X101.570 Y108.153 E11.72306
G1 X91.847 Y98.430 E12.11114
G1 X91.847 Y99.371 E12.13769
G1 X100.629 Y108.153 E12.48823
G1 X99.689 Y108.153 E12.51477
G1 X91.847 Y100.311 E12.82777
G1 X91.847 Y101.252 E12.85432
G1 X98.748 Y108.153 E13.12978
G1 X97.808 Y108.153 E13.15632
G1 X91.847 Y102.192 E13.39424
G1 X91.847 Y103.133 E13.42079
G1 X96.867 Y108.153 E13.62117
G1 X95.927 Y108.153 E13.64771
G1 X91.847 Y104.073 E13.81055
G1 X91.847 Y105.014 E13.83710
G1 X94.986 Y108.153 E13.96240
G1 X94.046 Y108.153 E13.98894
G1 X91.847 Y105.954 E14.07670
G1 X91.847 Y106.895 E14.10325
G1 X93.105 Y108.153 E14.15347
G1 X92.165 Y108.153 E14.18001
G1 X91.847 Y107.835 E14.19269
M106 S252.45
G1 Z1.400 F7800.000
G1 E12.19269 F2400.00000
G92 E0
G1 X109.250 Y109.250 F7800.000
G1 E2.00000 F2400.00000
G1 X90.750 Y109.250 E2.34203 F1800.000
G1 X90.750 Y90.750 E2.68407
G1 X109.250 Y90.750 E3.02610
G1 X109.250 Y109.175 E3.36674
G1 X109.250 Y109.750 F7800.000
G1 X109.750 Y109.750 F7800.000
G1 X90.250 Y109.750 E3.72727 F1800.000
G1 X90.250 Y90.250 E4.08779
G1 X109.750 Y90.250 E4.44831
G1 X109.750 Y109.675 E4.80744
G1 X109.317 Y109.500 F7800.000
G1 Z1.700 F7800.000
G1 X109.250 Y109.250 F7800.000
G1 X90.750 Y109.250 E5.14948 F1800.000
G1 X90.750 Y90.750 E5.49151
G1 X109.250 Y90.750 E5.83354
G1 X109.250 Y109.175 E6.17419
G1 X109.250 Y109.750 F7800.000
G1 X109.750 Y109.750 F7800.000
G1 X90.250 Y109.750 E6.53471 F1800.000
G1 X90.250 Y90.250 E6.89523
G1 X109.750 Y90.250 E7.25575
G1 X109.750 Y109.675 E7.61489
G1 X109.317 Y109.500 F7800.000
G1 Z2.000 F7800.000
G1 X109.250 Y109.250 F7800.000
G1 X90.750 Y109.250 E7.95692 F1800.000
G1 X90.750 Y90.750 E8.29895
G1 X109.250 Y90.750 E8.64098
G1 X109.250 Y109.175 E8.98163
G1 X109.250 Y109.750 F7800.000
G1 X109.750 Y109.750 F7800.000
G1 X90.250 Y109.750 E9.34215 F1800.000
G1 X90.250 Y90.250 E9.70267
G1 X109.750 Y90.250 E10.06319
G1 X109.750 Y109.675 E10.42233
G1 X109.317 Y109.500 F7800.000
G1 Z2.300 F7800.000
G1 X109.250 Y109.250 F7800.000
G1 X90.750 Y109.250 E10.76436 F1800.000
G1 X90.750 Y90.750 E11.10639
G1 X109.250 Y90.750 E11.44843
G1 X109.250 Y109.175 E11.78907
G1 X109.250 Y109.750 F7800.000
G1 X109.750 Y109.750 F7800.000
G1 X90.250 Y109.750 E12.14959 F1800.000
G1 X90.250 Y90.250 E12.51012
G1 X109.750 Y90.250 E12.87064
G1 X109.750 Y109.675 E13.22977
G1 X109.317 Y109.500 F7800.000
G1 Z2.600 F7800.000
G1 X109.250 Y109.250 F7800.000
G1 X90.750 Y109.250 E13.57180 F1800.000
G1 X90.750 Y90.750 E13.91384
G1 X109.250 Y90.750 E14.25587
G1 X109.250 Y109.175 E14.59652
G1 X109.250 Y109.750 F7800.000
G1 X109.750 Y109.750 F7800.000
G1 X90.250 Y109.750 E14.95704 F1800.000
G1 X90.250 Y90.250 E15.31756
G1 X109.750 Y90.250 E15.67808
G1 X109.750 Y109.675 E16.03721
G1 X109.317 Y109.500 F7800.000
G1 Z2.900 F7800.000
G1 X109.250 Y109.250 F7800.000
G1 X90.750 Y109.250 E16.37925 F1800.000
G1 X90.750 Y90.750 E16.72128
G1 X109.250 Y90.750 E17.06331
G1 X109.250 Y109.175 E17.40396
G1 X109.250 Y109.750 F7800.000
G1 X109.750 Y109.750 F7800.000
G1 X90.250 Y109.750 E17.76448 F1800.000
G1 X90.250 Y90.250 E18.12500
G1 X109.750 Y90.250 E18.48552
G1 X109.750 Y109.675 E18.84466
G1 X109.317 Y109.500 F7800.000
G1 Z3.200 F7800.000
G1 X109.250 Y109.250 F7800.000
G1 X90.750 Y109.250 E19.18669 F1800.000
G1 X90.750 Y90.750 E19.52872
G1 X109.250 Y90.750 E19.87076
G1 X109.250 Y109.175 E20.21140
G1 X109.250 Y109.750 F7800.000
G1 X109.750 Y109.750 F7800.000
G1 X90.250 Y109.750 E20.57192 F1800.000
G1 X90.250 Y90.250 E20.93244
G1 X109.750 Y90.250 E21.29297
G1 X109.750 Y109.675 E21.65210
G1 X109.317 Y109.500 F7800.000
G1 Z3.500 F7800.000
G1 X109.250 Y109.250 F7800.000
G1 X90.750 Y109.250 E21.99413 F1800.000
G1 X90.750 Y90.750 E22.33617
G1 X109.250 Y90.750 E22.67820
G1 X109.250 Y109.175 E23.01885
G1 X109.250 Y109.750 F7800.000
G1 X109.750 Y109.750 F7800.000
G1 X90.250 Y109.750 E23.37937 F1800.000
G1 X90.250 Y90.250 E23.73989
G1 X109.750 Y90.250 E24.10041
G1 X109.750 Y109.675 E24.45954
G1 X109.317 Y109.500 F7800.000
G1 Z3.800 F7800.000
G1 X109.250 Y109.250 F7800.000
G1 X90.750 Y109.250 E24.80158 F1800.000
G1 X90.750 Y90.750 E25.14361
G1 X109.250 Y90.750 E25.48564
G1 X109.250 Y109.175 E25.82629
G1 X109.250 Y109.750 F7800.000
G1 X109.750 Y109.750 F7800.000
G1 X90.250 Y109.750 E26.18681 F1800.000
G1 X90.250 Y90.250 E26.54733
G1 X109.750 Y90.250 E26.90785
G1 X109.750 Y109.675 E27.26699
G1 X109.317 Y109.500 F7800.000
G1 Z4.100 F7800.000
G1 X109.250 Y109.250 F7800.000
G1 X90.750 Y109.250 E27.60902 F1800.000
G1 X90.750 Y90.750 E27.95105
G1 X109.250 Y90.750 E28.29309
G1 X109.250 Y109.175 E28.63373
G1 X109.250 Y109.750 F7800.000
G1 X109.750 Y109.750 F7800.000
G1 X90.250 Y109.750 E28.99425 F1800.000
G1 X90.250 Y90.250 E29.35477
G1 X109.750 Y90.250 E29.71529
G1 X109.750 Y109.675 E30.07443
G1 X109.317 Y109.500 F7800.000
G1 Z4.400 F7800.000
G1 X109.250 Y109.250 F7800.000
G1 X90.750 Y109.250 E30.41646 F1800.000
G1 X90.750 Y90.750 E30.75850
G1 X109.250 Y90.750 E31.10053
G1 X109.250 Y109.175 E31.44117
G1 X109.250 Y109.750 F7800.000
G1 X109.750 Y109.750 F7800.000
G1 X90.250 Y109.750 E31.80170 F1800.000
G1 X90.250 Y90.250 E32.16222
G1 X109.750 Y90.250 E32.52274
G1 X109.750 Y109.675 E32.88187
G1 X109.317 Y109.500 F7800.000
G1 Z4.700 F7800.000
G1 X109.250 Y109.250 F7800.000
G1 X90.750 Y109.250 E33.22391 F1800.000
G1 X90.750 Y90.750 E33.56594
G1 X109.250 Y90.750 E33.90797
G1 X109.250 Y109.175 E34.24862
G1 X109.250 Y109.750 F7800.000
G1 X109.750 Y109.750 F7800.000
G1 X90.250 Y109.750 E34.60914 F1800.000
G1 X90.250 Y90.250 E34.96966
G1 X109.750 Y90.250 E35.33018
G1 X109.750 Y109.675 E35.68932
G1 X109.317 Y109.500 F7800.000
G1 Z5.000 F7800.000
G1 X109.250 Y109.250 F7800.000
G1 X90.750 Y109.250 E36.03135 F1800.000
G1 X90.750 Y90.750 E36.37338
G1 X109.250 Y90.750 E36.71541
G1 X109.250 Y109.175 E37.05606
G1 X109.250 Y109.750 F7800.000
G1 X109.750 Y109.750 F7800.000
G1 X90.250 Y109.750 E37.41658 F1800.000
G1 X90.250 Y90.250 E37.77710
G1 X109.750 Y90.250 E38.13762
G1 X109.750 Y109.675 E38.49676
G1 X109.317 Y109.500 F7800.000
G1 Z5.300 F7800.000
G1 X109.250 Y109.250 F7800.000
G1 X90.750 Y109.250 E38.83879 F1800.000
G1 X90.750 Y90.750 E39.18082
G1 X109.250 Y90.750 E39.52286
G1 X109.250 Y109.175 E39.86350
G1 X109.250 Y109.750 F7800.000
G1 X109.750 Y109.750 F7800.000
G1 X90.250 Y109.750 E40.22402 F1800.000
G1 X90.250 Y90.250 E40.58455
G1 X109.750 Y90.250 E40.94507
G1 X109.750 Y109.675 E41.30420
G1 X109.317 Y109.500 F7800.000
G1 Z5.600 F7800.000
G1 X109.250 Y109.250 F7800.000
G1 X90.750 Y109.250 E41.64623 F1800.000
G1 X90.750 Y90.750 E41.98827
G1 X109.250 Y90.750 E42.33030
G1 X109.250 Y109.175 E42.67095
G1 X109.250 Y109.750 F7800.000
G1 X109.750 Y109.750 F7800.000
G1 X90.250 Y109.750 E43.03147 F1800.000
G1 X90.250 Y90.250 E43.39199
G1 X109.750 Y90.250 E43.75251
G1 X109.750 Y109.675 E44.11164
G1 X109.317 Y109.500 F7800.000
G1 Z5.900 F7800.000
G1 X109.250 Y109.250 F7800.000
G1 X90.750 Y109.250 E44.45368 F1800.000
G1 X90.750 Y90.750 E44.79571
G1 X109.250 Y90.750 E45.13774
G1 X109.250 Y109.175 E45.47839
G1 X109.250 Y109.750 F7800.000
G1 X109.750 Y109.750 F7800.000
G1 X90.250 Y109.750 E45.83891 F1800.000
G1 X90.250 Y90.250 E46.19943
G1 X109.750 Y90.250 E46.55995
G1 X109.750 Y109.675 E46.91909
G1 X109.317 Y109.500 F7800.000
G1 Z6.200 F7800.000
G1 X109.250 Y109.250 F7800.000
G1 X90.750 Y109.250 E47.26112 F1800.000
G1 X90.750 Y90.750 E47.60315
G1 X109.250 Y90.750 E47.94519
G1 X109.250 Y109.175 E48.28583
G1 X109.250 Y109.750 F7800.000
G1 X109.750 Y109.750 F7800.000
G1 X90.250 Y109.750 E48.64635 F1800.000
G1 X90.250 Y90.250 E49.00687
G1 X109.750 Y90.250 E49.36740
G1 X109.750 Y109.675 E49.72653
G1 X109.317 Y109.500 F7800.000
G1 Z6.500 F7800.000
G1 X109.250 Y109.250 F7800.000
G1 X90.750 Y109.250 E50.06856 F1800.000
G1 X90.750 Y90.750 E50.41060
G1 X109.250 Y90.750 E50.75263
G1 X109.250 Y109.175 E51.09327
G1 X109.250 Y109.750 F7800.000
G1 X109.750 Y109.750 F7800.000
G1 X90.250 Y109.750 E51.45380 F1800.000
G1 X90.250 Y90.250 E51.81432
G1 X109.750 Y90.250 E52.17484
G1 X109.750 Y109.675 E52.53397
G1 X109.317 Y109.500 F7800.000
G1 Z6.800 F7800.000
G1 X109.250 Y109.250 F7800.000
